packages/foundations/assets/icons/functional/images/security/lock_closed_28.svg

<svg width="28" height="28" viewBox="0 0 28 28" fill="none" xmlns="http://www.w3.org/2000/svg">
<g clip-path="url(#clip0_187_239)">
<path fill-rule="evenodd" clip-rule="evenodd" d="M13.9995 2.62227C17.3065 2.62227 20.1188 5.25686 20.1245 8.60299C20.1255 9.23585 20.1255 9.86873 20.1245 10.5016C21.5224 10.5016 22.7495 11.6256 22.7495 13.1266C22.7509 16.3349 22.7509 19.5433 22.7495 22.7516C22.7495 24.1496 21.5998 25.3766 20.1245 25.3766C16.0411 25.3781 11.9578 25.3781 7.87445 25.3766C6.47648 25.3766 5.24945 24.2531 5.24945 22.7516V13.1266C5.24945 11.7287 6.37334 10.5016 7.87445 10.5016V8.60299C7.87445 5.29439 10.6221 2.62227 13.9995 2.62227ZM6.99945 13.1266V22.7516C6.99945 23.2004 7.3587 23.6264 7.87445 23.6266C11.9577 23.6286 16.041 23.6286 20.1245 23.6266C20.5732 23.6266 20.9991 23.2632 20.9995 22.7516C21.0014 19.5433 21.0014 16.335 20.9995 13.1266C20.9995 12.6779 20.642 12.2519 20.1245 12.2516H7.87445C7.42572 12.2516 6.99977 12.6054 6.99945 13.1266ZM13.9995 14.8766C14.9659 14.8766 15.7495 15.6601 15.7495 16.6266C15.7495 17.274 15.398 17.8392 14.8754 18.142L14.8745 20.1381C14.8745 20.6213 14.4827 21.0131 13.9995 21.0131C13.5507 21.0131 13.1259 20.6524 13.1245 20.1381L13.1244 18.1425C12.6013 17.8399 12.2495 17.2743 12.2495 16.6266C12.2495 15.6601 13.033 14.8766 13.9995 14.8766ZM13.9995 4.37227C11.6416 4.37227 9.6293 6.22932 9.62445 8.60299C9.62316 9.23587 9.62308 9.86875 9.62423 10.5016L18.3742 10.5008L18.3745 8.60299C18.3745 6.27197 16.4211 4.37227 13.9995 4.37227Z" fill="#1A1C1F"/>
</g>
<defs>
<clipPath id="clip0_187_239">
<rect width="28" height="28" fill="white"/>
</clipPath>
</defs>
</svg>

<svg xmlns="http://www.w3.org/2000/svg" width="28" height="28" fill="none"><g clip-path="url(#a)"><path fill="#1A1C1F" fill-rule="evenodd" d="M14 2.622c3.307 0 6.119 2.635 6.125 5.981v1.899a2.625 2.625 0 0 1 2.625 2.625v9.625c0 1.398-1.15 2.625-2.625 2.625H7.875a2.625 2.625 0 0 1-2.626-2.625v-9.625a2.625 2.625 0 0 1 2.625-2.625V8.603c0-3.309 2.748-5.98 6.126-5.98M7 13.127v9.625c0 .448.359.874.874.875q6.126.003 12.25 0a.88.88 0 0 0 .876-.875v-9.625a.875.875 0 0 0-.875-.875H7.875a.873.873 0 0 0-.876.875m7 1.75a1.75 1.75 0 0 1 .875 3.265v1.996a.875.875 0 0 1-1.75 0v-1.996a1.75 1.75 0 0 1 .874-3.265m0-10.505c-2.358 0-4.37 1.857-4.376 4.231v1.899l8.75-.001V8.603c0-2.331-1.953-4.23-4.374-4.23" clip-rule="evenodd"/></g><defs><clipPath id="a"><path fill="#fff" d="M0 0h28v28H0z"/></clipPath></defs></svg>
